Newaita/actions/symbolic/zoom-in-symbolic.svg

<svg height="16" viewBox="0 0 16 16" width="16" xmlns="http://www.w3.org/2000/svg"><g fill="#424242"><path d="m2.644531 2.109375c-.363281 0-.660156.296875-.660156.660156v3.308594c0 .367187.296875.660156.660156.660156h.664063c.367187 0 .660156-.292969.660156-.660156v-1.984375h1.984375c.367187 0 .660156-.292969.660156-.660156v-.664063c0-.363281-.292969-.660156-.660156-.660156zm7.277344 0c-.367187 0-.660156.296875-.660156.660156v.664063c0 .367187.292969.660156.660156.660156h1.984375v1.984375c0 .367187.296875.660156.664062.660156h.660157c.367187 0 .660156-.292969.660156-.660156v-3.308594c0-.101562-.023437-.199219-.0625-.285156-.011719-.019531-.019531-.039063-.03125-.058594-.105469-.171875-.285156-.292969-.5-.3125-.019531-.003906-.042969-.003906-.066406-.003906zm-7.277344 7.277344c-.363281 0-.660156.292969-.660156.660156v3.308594c0 .035156.003906.066406.007813.101562 0 .011719.003906.019531.003906.03125.011718.054688.03125.105469.054687.15625.007813.015625.019531.035157.027344.054688.007813.007812.011719.019531.019531.027343.023438.035157.050782.066407.082032.097657.003906.007812.011718.015625.019531.019531.023437.023438.050781.042969.078125.058594.007812.007812.015625.011718.023437.019531.011719.003906.019531.011719.03125.015625.007813.003906.015625.011719.027344.015625.066406.03125.140625.050781.21875.058594.003906.003906.011719.003906.015625.003906h.050781 3.308594c.367187 0 .660156-.292969.660156-.660156v-.660157c0-.367187-.292969-.664062-.660156-.664062h-1.984375v-1.984375c0-.367187-.292969-.660156-.660156-.660156zm9.925781 0c-.367187 0-.664062.292969-.664062.660156v1.984375h-1.984375c-.367187 0-.660156.296875-.660156.664062v.660157c0 .367187.292969.660156.660156.660156h3.308594c.027343 0 .058593 0 .085937-.003906.191406-.023438.359375-.132813.460938-.285157.019531-.027343.035156-.054687.050781-.082031.039063-.089843.0625-.1875.0625-.289062v-3.308594c0-.367187-.292969-.660156-.660156-.660156zm0 0"/><path d="m7.609375 5.417969c-.367187 0-.664063.292969-.664063.660156v.992187h-.992187c-.367187 0-.660156.296876-.660156.664063v.660156c0 .367188.292969.660157.660156.660157h.992187v.992187c0 .367187.296876.664063.664063.664063h.660156c.367188 0 .660157-.296876.660157-.664063v-.992187h.992187c.367187 0 .664063-.292969.664063-.660157v-.660156c0-.367187-.296876-.664063-.664063-.664063h-.992187v-.992187c0-.367187-.292969-.660156-.660157-.660156zm0 0"/></g></svg>

<?xml version="1.0" encoding="UTF-8"?>
<svg xmlns="http://www.w3.org/2000/svg" xmlns:xlink="http://www.w3.org/1999/xlink" width="16px" height="16px" viewBox="0 0 16 16" version="1.1">
<g id="surface1">
<path style=" stroke:none;fill-rule:nonzero;fill:rgb(25.882354%,25.882354%,25.882354%);fill-opacity:1;" d="M 2.644531 2.109375 C 2.28125 2.109375 1.984375 2.40625 1.984375 2.769531 L 1.984375 6.078125 C 1.984375 6.445312 2.28125 6.738281 2.644531 6.738281 L 3.308594 6.738281 C 3.675781 6.738281 3.96875 6.445312 3.96875 6.078125 L 3.96875 4.09375 L 5.953125 4.09375 C 6.320312 4.09375 6.613281 3.800781 6.613281 3.433594 L 6.613281 2.769531 C 6.613281 2.40625 6.320312 2.109375 5.953125 2.109375 Z M 9.921875 2.109375 C 9.554688 2.109375 9.261719 2.40625 9.261719 2.769531 L 9.261719 3.433594 C 9.261719 3.800781 9.554688 4.09375 9.921875 4.09375 L 11.90625 4.09375 L 11.90625 6.078125 C 11.90625 6.445312 12.203125 6.738281 12.570312 6.738281 L 13.230469 6.738281 C 13.597656 6.738281 13.890625 6.445312 13.890625 6.078125 L 13.890625 2.769531 C 13.890625 2.667969 13.867188 2.570312 13.828125 2.484375 C 13.816406 2.464844 13.808594 2.445312 13.796875 2.425781 C 13.691406 2.253906 13.511719 2.132812 13.296875 2.113281 C 13.277344 2.109375 13.253906 2.109375 13.230469 2.109375 Z M 2.644531 9.386719 C 2.28125 9.386719 1.984375 9.679688 1.984375 10.046875 L 1.984375 13.355469 C 1.984375 13.390625 1.988281 13.421875 1.992188 13.457031 C 1.992188 13.46875 1.996094 13.476562 1.996094 13.488281 C 2.007812 13.542969 2.027344 13.59375 2.050781 13.644531 C 2.058594 13.660156 2.070312 13.679688 2.078125 13.699219 C 2.085938 13.707031 2.089844 13.71875 2.097656 13.726562 C 2.121094 13.761719 2.148438 13.792969 2.179688 13.824219 C 2.183594 13.832031 2.191406 13.839844 2.199219 13.84375 C 2.222656 13.867188 2.25 13.886719 2.277344 13.902344 C 2.285156 13.910156 2.292969 13.914062 2.300781 13.921875 C 2.3125 13.925781 2.320312 13.933594 2.332031 13.9375 C 2.339844 13.941406 2.347656 13.949219 2.359375 13.953125 C 2.425781 13.984375 2.5 14.003906 2.578125 14.011719 C 2.582031 14.015625 2.589844 14.015625 2.59375 14.015625 C 2.613281 14.015625 2.628906 14.015625 2.644531 14.015625 L 5.953125 14.015625 C 6.320312 14.015625 6.613281 13.722656 6.613281 13.355469 L 6.613281 12.695312 C 6.613281 12.328125 6.320312 12.03125 5.953125 12.03125 L 3.96875 12.03125 L 3.96875 10.046875 C 3.96875 9.679688 3.675781 9.386719 3.308594 9.386719 Z M 12.570312 9.386719 C 12.203125 9.386719 11.90625 9.679688 11.90625 10.046875 L 11.90625 12.03125 L 9.921875 12.03125 C 9.554688 12.03125 9.261719 12.328125 9.261719 12.695312 L 9.261719 13.355469 C 9.261719 13.722656 9.554688 14.015625 9.921875 14.015625 L 13.230469 14.015625 C 13.257812 14.015625 13.289062 14.015625 13.316406 14.011719 C 13.507812 13.988281 13.675781 13.878906 13.777344 13.726562 C 13.796875 13.699219 13.8125 13.671875 13.828125 13.644531 C 13.867188 13.554688 13.890625 13.457031 13.890625 13.355469 L 13.890625 10.046875 C 13.890625 9.679688 13.597656 9.386719 13.230469 9.386719 Z M 12.570312 9.386719 "/>
<path style=" stroke:none;fill-rule:nonzero;fill:rgb(25.882354%,25.882354%,25.882354%);fill-opacity:1;" d="M 7.609375 5.417969 C 7.242188 5.417969 6.945312 5.710938 6.945312 6.078125 L 6.945312 7.070312 L 5.953125 7.070312 C 5.585938 7.070312 5.292969 7.367188 5.292969 7.734375 L 5.292969 8.394531 C 5.292969 8.761719 5.585938 9.054688 5.953125 9.054688 L 6.945312 9.054688 L 6.945312 10.046875 C 6.945312 10.414062 7.242188 10.710938 7.609375 10.710938 L 8.269531 10.710938 C 8.636719 10.710938 8.929688 10.414062 8.929688 10.046875 L 8.929688 9.054688 L 9.921875 9.054688 C 10.289062 9.054688 10.585938 8.761719 10.585938 8.394531 L 10.585938 7.734375 C 10.585938 7.367188 10.289062 7.070312 9.921875 7.070312 L 8.929688 7.070312 L 8.929688 6.078125 C 8.929688 5.710938 8.636719 5.417969 8.269531 5.417969 Z M 7.609375 5.417969 "/>
</g>
</svg>
